static/star.svg

<?xml version="1.0" encoding="UTF-8"?>
<svg xmlns="http://www.w3.org/2000/svg" xmlns:xlink="http://www.w3.org/1999/xlink" width="15px" height="14px" viewBox="0 0 15 14" version="1.1">
<g id="surface1">
<path style=" stroke:none;fill-rule:nonzero;fill:rgb(100%,78.823529%,0.392157%);fill-opacity:1;" d="M 7.5 0 L 9.738281 4.609375 L 14.742188 5.351562 L 11.121094 8.9375 L 11.976562 14 L 7.5 11.609375 L 3.023438 14 L 3.878906 8.9375 L 0.257812 5.351562 L 5.261719 4.609375 Z M 7.5 0 "/>
</g>
</svg>

<svg xmlns="http://www.w3.org/2000/svg" width="17" height="15" viewBox="-1 -1 17 16">
  <path d="m7.5 0 2.24 4.6 5 .75-3.62 3.59.86 5.06-4.48-2.4L3.02 14l.86-5.06L.26 5.35l5-.74Zm0 0" style="stroke:#000;fill-rule:nonzero;fill:#ffc901;fill-opacity:1"/>
</svg>
